!!!COM: Bach, Johann Sebastian
!!!CDT: 1685/3//-1750/7/28/
!!!OTL@@DE: Dank sei Gott in der Höhe
!!!OTL@EN:  Thanks be to God in the highest
!!!AGN: 4-Part Chorale
!!!SCT: BH 311
!!!SCT: BWV 287
**harm	**root	**kern	**kern	**kern	**kern
!	!	!bass	!tenor	!alto	!soprno
*	*Iorgan	*Iorgan	*Iorgan	*Iorgan	*Iorgan
*	*	*clefF4	*clefF4	*clefG2	*clefG2
*M4/4	*M4/4	*M4/4	*M4/4	*M4/4	*M4/4
*met(c)	*met(c)	*met(c)	*met(c)	*met(c)	*met(c)
*MM60	*MM60	*MM60	*MM60	*MM60	*MM60
*k[b-]	*k[b-]	*k[b-]	*k[b-]	*k[b-]	*k[b-]
*>[A,A,B]	*>[A,A,B]	*>[A,A,B]	*>[A,A,B]	*>[A,A,B]	*>[A,A,B]
*>A	*>A	*>A	*>A	*>A	*>A
*F:	*F:	*F:	*F:	*F:	*F:
Vb	4CC	4E	4c	4g	4cc
=1	=1	=1	=1	=1	=1
I	4FF	8F	4c	8f	4a
.	.	8E-	.	8g	.
viiob/IV	4AA	8D	4e-	4a	4cc
.	.	8C	.	.	.
IV	4BB-	4BB-	4f	8b-	4dd
.	.	.	.	8a	.
V	4CC	4C	4en	8g	4cc
.	.	.	.	8a	.
=2	=2	=2	=2	=2	=2
IVb	4BB-	4D	4f	8b-	2b-
.	.	.	.	8a	.
V7b	4CC	4En	4c	4g	.
I;	4FF;	4F;	4c;	4f;	4a;
I	4FF	4F	4c	4f	4a
=3	=3	=3	=3	=3	=3
V7d	4CC	8B-	4c	4e	4g
.	.	8A	.	.	.
I	4FF	8G	4c	4f	4a
.	.	8F	.	.	.
V7	2CC	4c	8c	4f	4g
.	.	.	16B-	.	.
.	.	.	16A	.	.
.	.	4C	4B-	4e	4g
=4	=4	=4	=4	=4	=4
I;	2.FF;	2.F;	2.A;	2.c;	2.f;
=:|!	=:|!	=:|!	=:|!	=:|!	=:|!
*>B	*>B	*>B	*>B	*>B	*>B
Vb	4CC	8E	4G	8c	4g
.	.	8D	.	8d	.
=5	=5	=5	=5	=5	=5
V	4CC	8C	4c	4e	4g
.	.	8c	.	.	.
I	4FF	8B-	4F	4c	4a
.	.	8A	.	.	.
ii	4GG	8G	8B-	4d	4b-
.	.	8F	8A	.	.
Vb	4CC	4E	4G	4c	8cc
.	.	.	.	.	8b-
=6	=6	=6	=6	=6	=6
I	4.FF	4F	8A	4.c	2a
.	.	.	8G	.	.
.	.	8AA	4F	.	.
IV7	8BB-	8BB-	.	8d	.
V;	4CC;	4C;	4c;	4e;	4g;
*C:	*C:	*C:	*C:	*C:	*C:
I	4CC	4C	4c	4e	4g
!!linebreak: 2
=7	=7	=7	=7	=7	=7
IV	8FF	8F	8c	4f	8a
viiob	8BB	8E	8d	.	8bn
I	4CC	8D	4e	4g	4cc
.	.	8C	.	.	.
ii	4DD	4F	4.d	4a	8dd
.	.	.	.	.	8cc
V7	4GG	4G	.	4g	4b
.	.	.	16e	.	.
.	.	.	16f	.	.
=8	=8	=8	=8	=8	=8
I;	2.CC;	2.C;	2.e;	2.g;	2.cc;
*F:	*F:	*F:	*F:	*F:	*F:
V	4CC	4C	4G	4e	4cc
=9	=9	=9	=9	=9	=9
I	4FF	8F	4A	4c	4a
.	.	4E-	.	.	.
V7d/IV	4FF	.	4A	4f	4cc
.	.	16D	.	.	.
.	.	16C	.	.	.
IV	4BB-	8BB-	4B-	4f	4dd
.	.	8A	.	.	.
viio7/II	4FF#	8G	4A	4e-	4cc
.	.	8F#	.	.	.
=10	=10	=10	=10	=10	=10
ii	2GG	8G	8B-	4.d	2b-
.	.	8A	8c	.	.
.	.	8B-	4d	.	.
.	.	8c	.	8e	.
V/II;	4DD;	4d;	4d;	4f#;	4a;
vi	4DD	8d	4fn	4d	4a
.	.	8c	.	.	.
=11	=11	=11	=11	=11	=11
V7d	4CC	8B-	4c	4e	4g
.	.	8A	.	.	.
I	4FF	8G	4c	4f	4a
.	.	8F	.	.	.
V7	2CC	4c	8c	4f	4g
.	.	.	16B-	.	.
.	.	.	16A	.	.
.	.	4C	4B-	4e	4g
=12	=12	=12	=12	=12	=12
I;	2.FF;	2.F;	2.A;	2.c;	2.f;
==|!	==|!	==|!	==|!	==|!	==|!
*-	*-	*-	*-	*-	*-
!!!chor2scor: -l 2 -s 0.6 -o %b.pmx
!!!YEC: Copyright 2003 by Craig Stuart Sapp
!!!license: GNU General Public License (http://www.gnu.org/copyleft/gpl.html)
!!!SMA: 371 Bach Chorales, edited by Ludwig Erk, C.F. Peters
!!!PDT: 1850, 1865
!!!ONB: Harmony and Root analysis done manually by Craig Sapp
